pieces/kosal/qb.svg

<svg width="81" height="81" viewBox="0 0 81 81" fill="none" xmlns="http://www.w3.org/2000/svg">
<path d="M55.7 50.9L59.7 16L40.5 49.2L21.3 16L25.4 50.9L7.89999 30.8L18.8 72H62.2L73.1 30.8L55.7 50.9V50.9ZM40.5 66.9L36.9 60.5L40.5 54.1L44.1 60.5L40.5 66.9Z" fill="#010101"/>
<path d="M40.5 11.7L34.9 35.2L40.5 44.7L46.1 35.2L40.5 11.7Z" fill="#010101"/>
<path d="M40.5 16C43.4823 16 45.9 13.5823 45.9 10.6C45.9 7.61766 43.4823 5.2 40.5 5.2C37.5177 5.2 35.1 7.61766 35.1 10.6C35.1 13.5823 37.5177 16 40.5 16Z" fill="#010101"/>
<path d="M41.6 7.2C40.8 6.8 39.9 6.6 39 6.9C37.2 7.4 36.1 9.3 36.6 11.1C36.6 11.2 36.6 11.2 36.7 11.3C39.6 11.6 42 8.5 41.6 7.2V7.2Z" fill="#6D6E6E"/>
<path d="M59.5 21.4C62.4823 21.4 64.9 18.9823 64.9 16C64.9 13.0177 62.4823 10.6 59.5 10.6C56.5177 10.6 54.1 13.0177 54.1 16C54.1 18.9823 56.5177 21.4 59.5 21.4Z" fill="#010101"/>
<path d="M60.6 12.6C59.8 12.2 58.9 12 58 12.3C56.2 12.8 55.1 14.7 55.6 16.5C55.6 16.6 55.6 16.6 55.7 16.7C58.6 16.9 61 13.9 60.6 12.6Z" fill="#6D6E6E"/>
<path d="M21.5 21.4C24.4823 21.4 26.9 18.9823 26.9 16C26.9 13.0177 24.4823 10.6 21.5 10.6C18.5177 10.6 16.1 13.0177 16.1 16C16.1 18.9823 18.5177 21.4 21.5 21.4Z" fill="#010101"/>
<path d="M22.6 12.6C21.8 12.2 20.9 12 20 12.3C18.2 12.8 17.1 14.7 17.6 16.5C17.6 16.6 17.6 16.6 17.7 16.7C20.6 16.9 23 13.9 22.6 12.6Z" fill="#6D6E6E"/>
<path d="M73.1 36.8C76.0823 36.8 78.5 34.3823 78.5 31.4C78.5 28.4177 76.0823 26 73.1 26C70.1177 26 67.7 28.4177 67.7 31.4C67.7 34.3823 70.1177 36.8 73.1 36.8Z" fill="#010101"/>
<path d="M74.2 28C73.4 27.6 72.5 27.4 71.6 27.7C69.8 28.2 68.7 30.1 69.2 31.9C69.2 32 69.2 32 69.3 32.1C72.2 32.3 74.6 29.3 74.2 28Z" fill="#6D6E6E"/>
<path d="M7.9 36.8C10.8823 36.8 13.3 34.3823 13.3 31.4C13.3 28.4177 10.8823 26 7.9 26C4.91766 26 2.5 28.4177 2.5 31.4C2.5 34.3823 4.91766 36.8 7.9 36.8Z" fill="#010101"/>
<path d="M9 28C8.2 27.6 7.3 27.4 6.4 27.7C4.6 28.1 3.5 30 4 31.8C4 31.9 4 31.9 4.1 32C7 32.3 9.4 29.3 9 28V28ZM40.5 20.9L37.4 34.3L40.5 39.6V20.9ZM56.6 54.7L58.4 60.3L68 38.3L56.6 54.7ZM47.9 50.5L55.9 29.3L43.6 50.1L47.9 50.5ZM33.3 50.5L25 29.1L28.1 51L33.3 50.5ZM23.1 58.7L12.6 40.9L20.5 67.3L23.1 58.7Z" fill="#6D6E6E"/>
</svg>

<svg xmlns="http://www.w3.org/2000/svg" viewBox="0 0 81 81"><style>.st0{fill:none}.st1{fill:#010101}.st2{fill:#6d6e6e}</style><path class="st0" d="M0 0h81v81H0z"/><path class="st1" d="M55.7 50.9l4-34.9-19.2 33.2L21.3 16l4.1 34.9L7.9 30.8 18.8 72h43.4l10.9-41.2-17.4 20.1zm-15.2 16l-3.6-6.4 3.6-6.4 3.6 6.4-3.6 6.4z"/><path class="st1" d="M40.5 11.7l-5.6 23.5 5.6 9.5 5.6-9.5z"/><circle class="st1" cx="40.5" cy="10.6" r="5.4"/><path class="st2" d="M41.6 7.2c-.8-.4-1.7-.6-2.6-.3-1.8.5-2.9 2.4-2.4 4.2 0 .1 0 .1.1.2 2.9.3 5.3-2.8 4.9-4.1z"/><circle class="st1" cx="59.5" cy="16" r="5.4"/><path class="st2" d="M60.6 12.6c-.8-.4-1.7-.6-2.6-.3-1.8.5-2.9 2.4-2.4 4.2 0 .1 0 .1.1.2 2.9.2 5.3-2.8 4.9-4.1z"/><circle class="st1" cx="21.5" cy="16" r="5.4"/><path class="st2" d="M22.6 12.6c-.8-.4-1.7-.6-2.6-.3-1.8.5-2.9 2.4-2.4 4.2 0 .1 0 .1.1.2 2.9.2 5.3-2.8 4.9-4.1z"/><circle class="st1" cx="73.1" cy="31.4" r="5.4"/><path class="st2" d="M74.2 28c-.8-.4-1.7-.6-2.6-.3-1.8.5-2.9 2.4-2.4 4.2 0 .1 0 .1.1.2 2.9.2 5.3-2.8 4.9-4.1z"/><circle class="st1" cx="7.9" cy="31.4" r="5.4"/><path class="st2" d="M9 28c-.8-.4-1.7-.6-2.6-.3-1.8.4-2.9 2.3-2.4 4.1 0 .1 0 .1.1.2 2.9.3 5.3-2.7 4.9-4zM40.5 20.9l-3.1 13.4 3.1 5.3zM56.6 54.7l1.8 5.6 9.6-22zM47.9 50.5l8-21.2-12.3 20.8zM33.3 50.5L25 29.1 28.1 51zM23.1 58.7L12.6 40.9l7.9 26.4z"/></svg>
